svgs/sharp-solid/octagon-exclamation.svg

<svg xmlns="http://www.w3.org/2000/svg" viewBox="0 0 512 512"><!--! Font Awesome Pro 6.6.0 by @fontawesome - https://fontawesome.com License - https://fontawesome.com/license (Commercial License) Copyright 2024 Fonticons, Inc. --><path d="M0 160L0 352 160 512l192 0L512 352l0-192L352 0 160 0 0 160zm280-32l0 24 0 112 0 24-48 0 0-24 0-112 0-24 48 0zM232 320l48 0 0 48-48 0 0-48z"/></svg>

<svg xmlns="http://www.w3.org/2000/svg" viewBox="0 0 512 512"><!--! Font Awesome Pro 6.4.0 by @fontawesome - https://fontawesome.com License - https://fontawesome.com/license (Commercial License) Copyright 2023 Fonticons, Inc. --><path d="M0 160V352L160 512H352L512 352V160L352 0H160L0 160zm280-32v24V264v24H232V264 152 128h48zM232 320h48v48H232V320z"/></svg>
